X: 040122
T: Dave O Docherty's [reel]
N: 061
C: BB
N: revised 1/07
R: reel
Q: 380
M: 4/4
L: 1/8
K: D
FA|"Bm"BcBA "D"F2 ED|"G"B,DDE "D"FGAc|"Bm"dBBd "Em"e2 gf |"G"eBdB "A"A2 FA |
"Bm"BcBA "D"F2 ED | "G"B,DDE "D"FGAc | "Bm"defd "G"g2 ed |"A7"cAGE "D"D2 :|
FA | "Bm7"BDFA "D"dcde |"Bm"fede "F#m"fa^ga |"Bm"bfef "D"afef |"G"gfed "Bm"B2 FA |
"Bm7"BDFA "D"dcde |"Bm"fede "F#m"fa (3a^ga | "Bm7"b2 af "Em"edBd |"A7"cAGE "D"D2 :|
